!!!Melodie: eigene
!!!Typ: Lied
**kern	**silbe	**silbe	**silbe	**silbe	**silbe	**silbe
*clefG2	*lang:DE	*lang:DE	*lang:DE	*lang:DE	*lang:DE	*lang:DE
*M3/4	*	*	*	*	*	*
4dd	Kommt	dass	Ob	wir	Er	er
4dd	her,	freu#	auch	ha#	ma#	las#
4ff	des	#dig	der	#ben	#che	#se
=	=	=	=	=	=	=
(4.ee	Kö#	wir	Feind	Ruh’	uns	Herz
8dd	|	|	|	|	|	|
4cc)	|	|	|	|	|	|
=	=	=	=	=	=	=
4dd	#nigs	in	mit	und	im	und
4b	Auf#	Drang	gro#	si#	Glau#	Zun#
4b	#ge#	und	#ßem	#cher'n	#ben	#ge
=	=	=	=	=	=	=
(4.cc	#bot	Not	Trutz	Schutz	kühn	glüh’n,
8b	|	|	|	|	|	|
4a)	|	|	|	|	|	|
=	=	=	=	=	=	=
4g	die	sein	und	durch	und	zu
4g	sei#	Lob	man#	sei#	in	wek#
4a	#ne	er#	#cher	#nes	der	#ken
=	=	=	=	=	=	=
(4.f	Fah#	#schal#	List	Ar#	Lie#	die
8e	|	|	|	|	|	|
4d)	|	|	|	|	|	|
=	=	=	=	=	=	=
4g	#ne	#len	will	#mes	#be	Ge#
2e	fas#	las#	stür#	schir#	rei#	#mei#
=	=	=	=	=	=	=
2.d	#sen,	#sen.	#men,	#men.	#ne,	#ne.
=:|	=	=	=	=	=	=
4d	.	Er	.	Wie	.	Und
4a	.	hat	.	Gott	.	ob
4b	.	uns	.	zu	.	auch
=	=	=	=	=	=	=
(4.cc	.	sei#	.	un#	.	un#
8b-	.	|	.	|	.	|
4a)	.	|	.	|	.	|
=	=	=	=	=	=	=
4b-	.	#ner	.	#ser'n	.	#ser
4a	.	Wahr#	.	Vä#	.	Au#
4g	.	#heit	.	#tern	.	#ge
=	=	=	=	=	=	=
2.f	.	Schatz	.	trat	.	nicht
=	=	=	=	=	=	=
4e	.	zu	.	auf	.	in
4f	.	wah#	.	ihr	.	sei#
4g	.	#ren	.	Ge#	.	#nen
=	=	=	=	=	=	=
(4.a	.	an#	.	#bet	.	Plan
8b	.	|	.	|	.	|
4cc)	.	|	.	|	.	|
=	=	=	=	=	=	=
4dd	.	#ver#	.	und	.	mag
2b	.	#trau#	.	Kla#	.	drin#
=	=	=	=	=	=	=
2.a	.	#et.	.	#gen,	.	#gen,
=	=	=	=	=	=	=
4cc	.	für	.	wird	.	er
4a	.	ihn	.	er,	.	führt
4b-	.	wir	.	zu	.	durch
=	=	=	=	=	=	=
(4.g	.	tre#	.	Spott	.	Dun#
8f	.	|	.	|	.	|
4e)	.	|	.	|	.	|
=	=	=	=	=	=	=
4a	.	#ten	.	dem	.	#kel
4f	.	auf	.	fei#	.	uns
4g	.	den	.	#gen	.	zum
=	=	=	=	=	=	=
2.e	.	Platz.	.	Rat,	.	Licht,
=	=	=	=	=	=	=
4e	.	Und	.	uns	.	lässt
4e	.	wo's	.	durch	.	Schloss
4e	.	den	.	die	.	und
=	=	=	=	=	=	=
(4.f	.	Her#	.	Flu#	.	Rie#
8g	.	|	.	|	.	|
4a)	.	|	.	|	.	|
=	=	=	=	=	=	=
4a	.	#zen	.	#ten	.	#gel
2g#	.	grau#	.	tra#	.	sprin#
=	=	=	=	=	=	=
2a	.	#et,	.	#gen,	.	#gen.
4cc	.	zum	.	mit	.	Des
=	=	=	=	=	=	=
2a	.	Kö#	.	ihm	.	woll’n
4cc	.	#nig	.	wir	.	wir
=	=	=	=	=	=	=
(4.b	.	auf#	.	wol#	.	fröh#
8cc	.	|	.	|	.	|
4dd)	.	|	.	|	.	|
=	=	=	=	=	=	=
4ff	.	#ge#	.	#len's	.	#lich
2ee	.	#schau#	.	wa#	.	sin#
=	=	=	=	=	=	=
2.dd	.	#et!	.	#gen!	.	#gen!
==	==	==	==	==	==	==
*-	*-	*-	*-	*-	*-	*-
